X:1
T: The Highland Hornpipe
C:
R:Reel
Q: 232
K:Bb
M:4/4
L:1/8
|:((3FGA)|Bd FB DF Bd|fb df Bd FB|ce Ac FA CF|AF Ac ec AF|
Bd FB DF Bd|fb df Bd FB|GA Bc dg fB|AF GA B2:|
K:F
|:cB|Af cf Af cf|AF Ac fc AF|df Bf df Bf|dB df bf dB|
eg cg eg cg|ec eg bg ec|fd fa gf eg|f2 f2 f2:|
